X: 14
M: C|
L: 1/8
K: D
af |\
d2d2 f3e | defg a2AG | F2A2 A2GF | E2E2 ^c3e |\
d2d2 f3e | defg a2ga | bagf ede^c | d4 D2 |]
af |\
d3A F3A | dc BA F2ED | E2=c2 GEDE | =C2C2 =c2fe |\
d3A F3D | DEFG A2gf | efgf ef ^ce | d4 D2 |]
af |\
defg fg ef | defd f/e/f/g/ af |\
af df ge aA |
df eg fa gb |\
ga fg e^c Ac | d4 D2 |] fg |\
af dA FD AF | Ad AB FD AF |
EG =cG EG =cG |\
=cA E=c EC GE |\
ge af ec Ac | d4 D2 |]


